2096/assets/logo.svg

<svg xmlns="http://www.w3.org/2000/svg" width="400" height="400" viewBox="0, 0, 400,400">
    <g fill-rule="evenodd">
        <path d="M69.867 151.732v47.466l35.133.068 35.133.067v62.4l-35.133.068-35.133.068v33.864h104.266V165.335L139 165.268l-35.133-.068-.068-30.467-.068-30.466H69.867v47.465m156 78.801v65.2h104.266v-33.864L295 261.801l-35.133-.068v-62.4l35.133-.067 35.133-.068V165.333H225.867v65.2m-40.267 50.8v14.4h28.8v-28.8h-28.8v14.4" fill="#f8fcfc"/>
        <path d="M69.724 104.331c-.07.185-.097 21.636-.059 47.669l.068 47.333 35.134.068 35.133.068V261.598l-35.133.068-35.134.067v34.134h104.534V165.2l-35.133-.068-35.132-.067-.068-30.466-.067-30.466-17.008-.068c-13.465-.055-17.034.001-17.135.266m34.075 30.402l.068 30.467 35.133.068 35.133.067v130.398H69.867v-33.864l35.133-.068 35.133-.068v-62.4L105 199.266l-35.133-.068V104.267h33.864l.068 30.466m121.925 30.666c-.07.184-.097 29.614-.059 65.401l.068 65.067h104.534v-34.134l-35.134-.067-35.133-.068V199.469l35.133-.068 35.134-.068V165.2l-52.208-.067c-41.627-.054-52.234 0-52.335.266m104.409 16.867v16.932l-35.133.068-35.133.067v62.4l35.133.068 35.133.068v33.864H225.867v-130.4h104.266v16.933" fill="#848484"/>
        <path d="M0 200v200h400V0H0v200m104-65.467v30.534h70.4V296H69.6v-34.4H140V199.467H69.6V104H104v30.533m226.4 47.734v17.2H260V261.6h70.4V296H225.6V165.067h104.8v17.2m-115.733 99.066V296h-29.334v-29.333h29.334v14.666" fill="#040404"/>
        <path d="M185.456 267c-.071.183-.096 6.753-.056 14.6l.071 14.267.065-14.465.064-14.464 14.467-.071 14.466-.072-14.475-.064c-11.382-.051-14.502.007-14.602.269" fill="#547c84"/>
        <path d="M214.464 281.264l-.064 14.465-14.467.071-14.466.071 14.475.065c11.382.05 14.502-.007 14.602-.269.071-.184.096-6.754.056-14.6l-.071-14.267-.065 14.464" fill="#445c5c"/>
    </g>
</svg>

<svg id="svg" version="1.1" xmlns="http://www.w3.org/2000/svg" xmlns:xlink="http://www.w3.org/1999/xlink" width="400" height="400" viewBox="0, 0, 400,400"><g id="svgg"><path id="path0" d="M69.867 151.732 L 69.867 199.198 105.000 199.266 L 140.133 199.333 140.133 230.533 L 140.133 261.733 105.000 261.801 L 69.867 261.869 69.867 278.801 L 69.867 295.733 122.000 295.733 L 174.133 295.733 174.133 230.534 L 174.133 165.335 139.000 165.268 L 103.867 165.200 103.799 134.733 L 103.731 104.267 86.799 104.267 L 69.867 104.267 69.867 151.732 M225.867 230.533 L 225.867 295.733 278.000 295.733 L 330.133 295.733 330.133 278.801 L 330.133 261.869 295.000 261.801 L 259.867 261.733 259.867 230.533 L 259.867 199.333 295.000 199.266 L 330.133 199.198 330.133 182.266 L 330.133 165.333 278.000 165.333 L 225.867 165.333 225.867 230.533 M185.600 281.333 L 185.600 295.733 200.000 295.733 L 214.400 295.733 214.400 281.333 L 214.400 266.933 200.000 266.933 L 185.600 266.933 185.600 281.333 " stroke="none" fill="#f8fcfc" fill-rule="evenodd"></path><path id="path1" d="M69.724 104.331 C 69.654 104.516,69.627 125.967,69.665 152.000 L 69.733 199.333 104.867 199.401 L 140.000 199.469 140.000 230.533 L 140.000 261.598 104.867 261.666 L 69.733 261.733 69.733 278.800 L 69.733 295.867 122.000 295.867 L 174.267 295.867 174.267 230.533 L 174.267 165.200 139.134 165.132 L 104.002 165.065 103.934 134.599 L 103.867 104.133 86.859 104.065 C 73.394 104.010,69.825 104.066,69.724 104.331 M103.799 134.733 L 103.867 165.200 139.000 165.268 L 174.133 165.335 174.133 230.534 L 174.133 295.733 122.000 295.733 L 69.867 295.733 69.867 278.801 L 69.867 261.869 105.000 261.801 L 140.133 261.733 140.133 230.533 L 140.133 199.333 105.000 199.266 L 69.867 199.198 69.867 151.732 L 69.867 104.267 86.799 104.267 L 103.731 104.267 103.799 134.733 M225.724 165.399 C 225.654 165.583,225.627 195.013,225.665 230.800 L 225.733 295.867 278.000 295.867 L 330.267 295.867 330.267 278.800 L 330.267 261.733 295.133 261.666 L 260.000 261.598 260.000 230.533 L 260.000 199.469 295.133 199.401 L 330.267 199.333 330.267 182.267 L 330.267 165.200 278.059 165.133 C 236.432 165.079,225.825 165.133,225.724 165.399 M330.133 182.266 L 330.133 199.198 295.000 199.266 L 259.867 199.333 259.867 230.533 L 259.867 261.733 295.000 261.801 L 330.133 261.869 330.133 278.801 L 330.133 295.733 278.000 295.733 L 225.867 295.733 225.867 230.533 L 225.867 165.333 278.000 165.333 L 330.133 165.333 330.133 182.266 " stroke="none" fill="#848484" fill-rule="evenodd"></path><path id="path2" d="M0.000 200.000 L 0.000 400.000 200.000 400.000 L 400.000 400.000 400.000 200.000 L 400.000 0.000 200.000 0.000 L 0.000 0.000 0.000 200.000 M104.000 134.533 L 104.000 165.067 139.200 165.067 L 174.400 165.067 174.400 230.533 L 174.400 296.000 122.000 296.000 L 69.600 296.000 69.600 278.800 L 69.600 261.600 104.800 261.600 L 140.000 261.600 140.000 230.533 L 140.000 199.467 104.800 199.467 L 69.600 199.467 69.600 151.733 L 69.600 104.000 86.800 104.000 L 104.000 104.000 104.000 134.533 M330.400 182.267 L 330.400 199.467 295.200 199.467 L 260.000 199.467 260.000 230.533 L 260.000 261.600 295.200 261.600 L 330.400 261.600 330.400 278.800 L 330.400 296.000 278.000 296.000 L 225.600 296.000 225.600 230.533 L 225.600 165.067 278.000 165.067 L 330.400 165.067 330.400 182.267 M214.667 281.333 L 214.667 296.000 200.000 296.000 L 185.333 296.000 185.333 281.333 L 185.333 266.667 200.000 266.667 L 214.667 266.667 214.667 281.333 " stroke="none" fill="#040404" fill-rule="evenodd"></path><path id="path3" d="M185.456 267.000 C 185.385 267.183,185.360 273.753,185.400 281.600 L 185.471 295.867 185.536 281.402 L 185.600 266.938 200.067 266.867 L 214.533 266.795 200.058 266.731 C 188.676 266.680,185.556 266.738,185.456 267.000 " stroke="none" fill="#547c84" fill-rule="evenodd"></path><path id="path4" d="M214.464 281.264 L 214.400 295.729 199.933 295.800 L 185.467 295.871 199.942 295.936 C 211.324 295.986,214.444 295.929,214.544 295.667 C 214.615 295.483,214.640 288.913,214.600 281.067 L 214.529 266.800 214.464 281.264 " stroke="none" fill="#445c5c" fill-rule="evenodd"></path><path id="path5" d="" stroke="none" fill="#443c2c" fill-rule="evenodd"></path><path id="path6" d="" stroke="none" fill="#04402c" fill-rule="evenodd"></path><path id="path7" d="" stroke="none" fill="#040430" fill-rule="evenodd"></path><path id="path8" d="" stroke="none" fill="#080404" fill-rule="evenodd"></path></g></svg>
